src/pos-icons/home-floor-g.svg

<svg height="24" viewBox="0 0 24 24" width="24" xmlns="http://www.w3.org/2000/svg"><path d="m12 3-10 9h3v8h14v-8h3zm-1 5h4v2h-4v6h2v-4h2v4c0 1.11-.9 2-2 2h-2a2 2 0 0 1 -2-2v-6c0-1.11.9-2 2-2z"/></svg>

<?xml version="1.0" encoding="UTF-8"?><!DOCTYPE svg PUBLIC "-//W3C//DTD SVG 1.1//EN" "http://www.w3.org/Graphics/SVG/1.1/DTD/svg11.dtd"><svg xmlns="http://www.w3.org/2000/svg" xmlns:xlink="http://www.w3.org/1999/xlink" version="1.1" id="mdi-home-floor-g" width="24" height="24" viewBox="0 0 24 24"><path d="M12,3L2,12H5V20H19V12H22L12,3M11,8H15V10H11V16H13V12H15V16C15,17.11 14.1,18 13,18H11A2,2 0 0,1 9,16V10C9,8.89 9.9,8 11,8Z" /></svg>
